X:412
T:B412-  The Scotch Haymakers
Q:1/4=120
L:1/4
M:C
K:Gm
G/A/|B3/2c/dc/B/|e/A/ d/B/GG/A/|B/c/ d3/4e/4fe/d/|\
(c/4B3/4) (f/4d3/4)Bd/=e/|f/=e/ f/g/fe/d/|e/d/ c/B/c(B/c/)|\
d/B/ c/A/ B/G/ A/G/|^F/D/ F/A/d||d/e/|f3/2g/fe/d/|\
(e/d/) (c/B/) cA|B/A/ B/c/dc/B/|A/G/ ^F3/4G/4A(A/4B/4c/)|\
B/A/ B/G/cd/e/|f/d/ g/=e/^f(g/f/)|\
g/4d3/4 e/4c3/4 d/4B3/4 c/4A3/4| B/4G3/4 D/4^F3/4G|]
